icons/ministry_of_health_fill.svg

<svg width="48" height="48" viewBox="0 0 48 48" fill="none" xmlns="http://www.w3.org/2000/svg">
<path fill-rule="evenodd" clip-rule="evenodd" d="M23.3754 5.21913C23.7406 4.92696 24.2595 4.92696 24.6248 5.21913L39.3508 17H42V23H6V17H8.64928L23.3754 5.21913ZM25 10V12H27V14H25V16H23V14H21V12H23V10H25Z" fill="black"/>
<path fill-rule="evenodd" clip-rule="evenodd" d="M24 25C21.7909 25 20 26.7909 20 29V37H14V33H12V25H8V33H6V37H4V43H44V37H42V33H40V25H36V33H34V37H28V29C28 26.7909 26.2091 25 24 25ZM24 27C25.1046 27 26 27.8954 26 29V37H22V29C22 27.8954 22.8954 27 24 27Z" fill="black"/>
</svg>

<svg
  xmlns="http://www.w3.org/2000/svg"
  width="24"
  height="24"
  viewBox="0 0 24 24"
  fill="none"
  stroke="currentColor"
  stroke-width="2"
  stroke-linecap="round"
  stroke-linejoin="round"
>
  <path
    fill-rule="evenodd"
    d="M23.375 5.22a1 1 0 0 1 1.25 0L39.35 17H42v6H6v-6h2.65zM25 10v2h2v2h-2v2h-2v-2h-2v-2h2v-2z"
    clip-rule="evenodd"
  />
  <path
    fill-rule="evenodd"
    d="M24 25a4 4 0 0 0-4 4v8h-6v-4h-2v-8H8v8H6v4H4v6h40v-6h-2v-4h-2v-8h-4v8h-2v4h-6v-8a4 4 0 0 0-4-4m0 2a2 2 0 0 1 2 2v8h-4v-8a2 2 0 0 1 2-2"
    clip-rule="evenodd"
  />
</svg>
